tenants/vtwonen/icons/channel_twitter.svg

<svg fill="none" height="24" viewBox="0 0 24 24" width="24" xmlns="http://www.w3.org/2000/svg" xmlns:xlink="http://www.w3.org/1999/xlink"><clipPath id="a"><path d="m0 0h24v24h-24z"/></clipPath><g clip-path="url(#a)"><circle cx="12" cy="12" fill="#000" r="12"/><path d="m13.5158 10.7757 5.9524-6.7757h-1.41l-5.1707 5.88203-4.12667-5.88203h-4.76083l6.2417 8.8955-6.2417 7.1045h1.41002l5.45678-6.213 4.359 6.213h4.7609m-14.06777-14.95873h2.1662l9.97197 13.96863h-2.1667" fill="#fff"/><path clip-rule="evenodd" d="m17.0413 13.2365c.0167-.062.0776-.3376.0943-.4027.0441-.1726.067-.3331.1339-.4815.0806-.1786.1963-.3315.3088-.4814.0822-.1136.1628-.218.2617-.3119.0228-.0212.0426-.0439.0654-.0666.1157-.0818.2389-.162.3804-.2211.0821-.0348.1643-.0651.2495-.0999.1202-.0515.2358-.1045.3758-.1423.143-.0394.359-.0379.4975.0015.0547.0167.105.0242.1536.0454.2313.0954.3926.2544.5219.4482.0928.1393.1552.3043.216.4754.0152.0439.0167.0923.0274.1408.0076.0318.003.0923-.003.1196-.0077.0318-.0016.0575-.0122.0893-.0122.0469-.0259.1015-.0426.1469-.0259.0802-.0396.1574-.067.2362-.0593.168-.1186.3406-.1871.4996-.1111.2543-.2145.4996-.356.7222-.0289.0469-.0502.0984-.0791.1438-.0183.0288-.0274.0591-.0441.0878-.0305.0576-.0624.1181-.0959.1726-.0243.0379-.0365.0803-.0624.1196-.0547.0863-.1034.1802-.1597.2665-.0654.0969-.1384.1862-.2084.2771-.0715.0878-.1689.162-.2495.2392-.0792.0772-.1598.1544-.2404.2331-.0502.047-.105.0909-.1476.1439-.0167.0136-.0335.0303-.0517.0439-.0472.0469-.1004.0954-.143.1468-.0168.0152-.0335.0303-.0487.0439-.035.0334-.07.0682-.0989.1045-.0213.0197-.0441.0409-.0685.0606-.0532.0696-.1262.1226-.1825.1907-.0198.0197-.0411.0379-.0609.0561-.0259.0318-.0532.0605-.0837.0893-.0121.0106-.0258.0212-.0395.0333-.0487.0651-.0913.1151-.1583.162-.0228.0242-.0988.106-.1217.1287-.0608.0727-.0563.0802-.1141.1332-.0654.0636-.1247.1333-.1901.1953-.0183.0182-.0594.0621-.0837.0591-.0396-.0258-.067-.0666-.102-.0999-.0623-.0636-.146-.1106-.2464-.1908-.0365-.0333-.0685-.0651-.1035-.0954-.0897-.112-.2175-.1953-.3073-.3089-.0274-.0363-.07-.062-.1004-.0999-.035-.0318-.07-.0636-.1035-.0954-.0395-.0499-.0912-.0954-.1354-.1393-.0243-.0212-.0304-.0302-.0532-.0499-.0137-.0182-.0304-.0424-.0426-.0576-.0259-.0378-.067-.0681-.0959-.1059-.0943-.1181-.2008-.2241-.2951-.3422-.0167-.0212-.0441-.0394-.0624-.0606-.073-.0953-.1613-.1801-.2312-.277-.0655-.0894-.1233-.1847-.1857-.2771-.0136-.0242-.0182-.0484-.0349-.0727-.032-.0499-.0639-.106-.0898-.1605-.0715-.1574-.1385-.3149-.2115-.4723-.0989-.215-.2038-.4209-.2769-.6632-.0243-.0832-.038-.2225-.0289-.3164.0046-.0469-.003-.0954.0076-.1363 0-.0212 0-.0408.0015-.062.0122-.0606.0229-.1227.0335-.1848.0502-.171.1004-.3315.1704-.4829.0715-.1545.1719-.2907.2739-.4194.0274-.0394.0578-.0772.0912-.1105.1461-.1408.2891-.2393.5219-.2998.0639-.0182.1749-.0364.2556-.0182.0441.0091.0867.0152.1323.0242.1583.05.2921.1151.4139.1984.213.1423.3666.3346.5066.5481.0669.0999.1415.2043.1932.3179.0578.1196.1019.2483.1476.38.035.0939.0426.1938.07.2953" fill="#e40047" fill-rule="evenodd"/></g></svg>

<svg width="24" height="24" viewBox="0 0 24 24" fill="none" xmlns="http://www.w3.org/2000/svg">
<g clip-path="url(#clip0_2128_24088)">
<circle cx="12" cy="12" r="12" fill="black"/>
<path d="M13.5158 10.7757L19.4682 4H18.0582L12.8875 9.88203L8.76083 4H4L10.2417 12.8955L4 20H5.41002L10.8668 13.787L15.2258 20H19.9867M5.91893 5.04127H8.08513L18.0571 19.0099H15.8904" fill="white"/>
<path fill-rule="evenodd" clip-rule="evenodd" d="M17.0413 13.2365C17.058 13.1745 17.1189 12.8989 17.1356 12.8338C17.1797 12.6612 17.2026 12.5007 17.2695 12.3523C17.3501 12.1737 17.4658 12.0208 17.5783 11.8709C17.6605 11.7573 17.7411 11.6529 17.84 11.559C17.8628 11.5378 17.8826 11.5151 17.9054 11.4924C18.0211 11.4106 18.1443 11.3304 18.2858 11.2713C18.3679 11.2365 18.4501 11.2062 18.5353 11.1714C18.6555 11.1199 18.7711 11.0669 18.9111 11.0291C19.0541 10.9897 19.2701 10.9912 19.4086 11.0306C19.4633 11.0473 19.5136 11.0548 19.5622 11.076C19.7935 11.1714 19.9548 11.3304 20.0841 11.5242C20.1769 11.6635 20.2393 11.8285 20.3001 11.9996C20.3153 12.0435 20.3168 12.0919 20.3275 12.1404C20.3351 12.1722 20.3305 12.2327 20.3245 12.26C20.3168 12.2918 20.3229 12.3175 20.3123 12.3493C20.3001 12.3962 20.2864 12.4508 20.2697 12.4962C20.2438 12.5764 20.2301 12.6536 20.2027 12.7324C20.1434 12.9004 20.0841 13.073 20.0156 13.232C19.9045 13.4863 19.8011 13.7316 19.6596 13.9542C19.6307 14.0011 19.6094 14.0526 19.5805 14.098C19.5622 14.1268 19.5531 14.1571 19.5364 14.1858C19.5059 14.2434 19.474 14.3039 19.4405 14.3584C19.4162 14.3963 19.404 14.4387 19.3781 14.478C19.3234 14.5643 19.2747 14.6582 19.2184 14.7445C19.153 14.8414 19.08 14.9307 19.01 15.0216C18.9385 15.1094 18.8411 15.1836 18.7605 15.2608C18.6813 15.338 18.6007 15.4152 18.5201 15.4939C18.4699 15.5409 18.4151 15.5848 18.3725 15.6378C18.3558 15.6514 18.339 15.6681 18.3208 15.6817C18.2736 15.7286 18.2204 15.7771 18.1778 15.8285C18.161 15.8437 18.1443 15.8588 18.1291 15.8724C18.0941 15.9058 18.0591 15.9406 18.0302 15.9769C18.0089 15.9966 17.9861 16.0178 17.9617 16.0375C17.9085 16.1071 17.8355 16.1601 17.7792 16.2282C17.7594 16.2479 17.7381 16.2661 17.7183 16.2843C17.6924 16.3161 17.6651 16.3448 17.6346 16.3736C17.6225 16.3842 17.6088 16.3948 17.5951 16.4069C17.5464 16.472 17.5038 16.522 17.4368 16.5689C17.414 16.5931 17.338 16.6749 17.3151 16.6976C17.2543 16.7703 17.2588 16.7778 17.201 16.8308C17.1356 16.8944 17.0763 16.9641 17.0109 17.0261C16.9926 17.0443 16.9515 17.0882 16.9272 17.0852C16.8876 17.0594 16.8602 17.0186 16.8252 16.9853C16.7629 16.9217 16.6792 16.8747 16.5788 16.7945C16.5423 16.7612 16.5103 16.7294 16.4753 16.6991C16.3856 16.5871 16.2578 16.5038 16.168 16.3902C16.1406 16.3539 16.098 16.3282 16.0676 16.2903C16.0326 16.2585 15.9976 16.2267 15.9641 16.1949C15.9246 16.145 15.8729 16.0995 15.8287 16.0556C15.8044 16.0344 15.7983 16.0254 15.7755 16.0057C15.7618 15.9875 15.7451 15.9633 15.7329 15.9481C15.707 15.9103 15.6659 15.88 15.637 15.8422C15.5427 15.7241 15.4362 15.6181 15.3419 15.5C15.3252 15.4788 15.2978 15.4606 15.2795 15.4394C15.2065 15.3441 15.1182 15.2593 15.0483 15.1624C14.9828 15.073 14.925 14.9777 14.8626 14.8853C14.849 14.8611 14.8444 14.8369 14.8277 14.8126C14.7957 14.7627 14.7638 14.7066 14.7379 14.6521C14.6664 14.4947 14.5994 14.3372 14.5264 14.1798C14.4275 13.9648 14.3226 13.7589 14.2495 13.5166C14.2252 13.4334 14.2115 13.2941 14.2206 13.2002C14.2252 13.1533 14.2176 13.1048 14.2282 13.0639C14.2282 13.0427 14.2282 13.0231 14.2297 13.0019C14.2419 12.9413 14.2526 12.8792 14.2632 12.8171C14.3134 12.6461 14.3636 12.4856 14.4336 12.3342C14.5051 12.1797 14.6055 12.0435 14.7075 11.9148C14.7349 11.8754 14.7653 11.8376 14.7987 11.8043C14.9448 11.6635 15.0878 11.565 15.3206 11.5045C15.3845 11.4863 15.4955 11.4681 15.5762 11.4863C15.6203 11.4954 15.6629 11.5015 15.7085 11.5105C15.8668 11.5605 16.0006 11.6256 16.1224 11.7089C16.3354 11.8512 16.489 12.0435 16.629 12.257C16.6959 12.3569 16.7705 12.4613 16.8222 12.5749C16.88 12.6945 16.9241 12.8232 16.9698 12.9549C17.0048 13.0488 17.0124 13.1487 17.0398 13.2502" fill="#E40047"/>
</g>
<defs>
<clipPath id="clip0_2128_24088">
<rect width="24" height="24" fill="white"/>
</clipPath>
</defs>
</svg>
